X:380
T: Dance in Oscar and Malvina
N: O'Farrell's Pocket Companion v.4 (Sky ed. p.164)
% "Oscar and Malvina" was the London pantomime drama for which O'Farrell
% supplied the music. Liner notes to OSMOF give all the details.
M: 4/4
L: 1/8
Q: 200
R: reel
K: G
d| BGBd g2 {ag}fe| dg dc/B/ cAAd| BGBd g2fe| fa/g/ dfgG G :|
z| G<dB<d G<dB<d| D<AF<A D<AF<A| G<dB<d G<dB<d | gf/e/ d>c BGG :|
z| B<Gd<G e<Gd<G| B<G {e}dc/B/ cAA>d| B<Gd<G e<Gd<G| gf/e/ d>c BGG :|
